X:28
T:Thread the Needle Again
R:reel
C:Carl Hession
D::Carl Hession - Stepping Stone
S:Clare FM
Z:psc -  http://www.cranfordpub.com
L:1/8
Q:333
M:C|
K:G
BGGF GABG|A=FFE FGAc|B2 (3ABc dedc|B2 cA GFDc|
BGGF GABG|A=FFE FGAB|c2 DE FGAB|cAdB cedc:|
|:d3 e dcBc|d/d/d ce dBcA|F2 (3ABc defg|a2 ge fdcA|
d2 de dcBc|d/d/d ce dBcA|GABc d2 (3efg |abag fdcA:|
